X: 33386
T: Queensferry Cooper, The
R: jig
M: 6/8
K: Adorian
g|AAA egf|eAA Age|BGG dGG|DGA Bde|
AAA egf|eAA eag|fef gGG|1 Bee e2:|2 Bee efg||
|:dga bag|dBd g2 a|fdd add|age dBc|
dga bag|dBd gag|fed BGA|1 Bee efg:|2 Bee e2||

